build/img/ubication.svg

<svg width="32" height="32" viewBox="0 0 32 32" fill="none" xmlns="http://www.w3.org/2000/svg">
<path d="M4 18.6666H6.66667V28C6.66667 28.3536 6.80714 28.6927 7.05719 28.9428C7.30724 29.1928 7.64638 29.3333 8 29.3333H24C24.3536 29.3333 24.6928 29.1928 24.9428 28.9428C25.1929 28.6927 25.3333 28.3536 25.3333 28V18.6666H28C28.2577 18.6669 28.5099 18.5923 28.726 18.4519C28.9421 18.3116 29.1128 18.1115 29.2173 17.876C29.3226 17.6406 29.3573 17.3797 29.317 17.125C29.2768 16.8703 29.1634 16.6328 28.9907 16.4413L16.9907 3.10797C16.4853 2.54531 15.5147 2.54531 15.0093 3.10797L3.00933 16.4413C2.83692 16.6329 2.72372 16.8703 2.68342 17.1248C2.64312 17.3794 2.67745 17.6401 2.78227 17.8756C2.88708 18.111 3.05788 18.311 3.27399 18.4514C3.49011 18.5918 3.74228 18.6666 4 18.6666ZM11.5373 15.5213C12.0923 14.9734 12.8408 14.6662 13.6207 14.6662C14.4005 14.6662 15.149 14.9734 15.704 15.5213L16.0027 15.8146L16.3 15.5213C16.8552 14.9733 17.6039 14.6661 18.384 14.6661C19.1641 14.6661 19.9128 14.9733 20.468 15.5213C20.7434 15.7863 20.9626 16.1041 21.1122 16.4558C21.2619 16.8075 21.3391 17.1858 21.3391 17.568C21.3391 17.9502 21.2619 18.3285 21.1122 18.6801C20.9626 19.0318 20.7434 19.3497 20.468 19.6146L16.0027 24L11.5373 19.6146C11.2619 19.3497 11.0428 19.0318 10.8931 18.6801C10.7434 18.3285 10.6663 17.9502 10.6663 17.568C10.6663 17.1858 10.7434 16.8075 10.8931 16.4558C11.0428 16.1041 11.2619 15.7863 11.5373 15.5213Z" fill="#000080"/>
</svg>

<svg width="32" height="32" fill="none" xmlns="http://www.w3.org/2000/svg"><path d="M4 18.667h2.667V28A1.333 1.333 0 008 29.333h16A1.333 1.333 0 0025.333 28v-9.333H28a1.33 1.33 0 001.217-.791 1.33 1.33 0 00-.226-1.435l-12-13.333c-.506-.563-1.476-.563-1.982 0l-12 13.333A1.334 1.334 0 004 18.667zm7.537-3.146a2.966 2.966 0 014.167 0l.299.294.297-.294a2.967 2.967 0 014.168 0 2.84 2.84 0 010 4.094L16.003 24l-4.466-4.385a2.84 2.84 0 010-4.094z" fill="navy"/></svg>
